X:1
T:Title
%%score { ( 1 4 5 ) | ( 2 3 ) }
L:1/8
M:3/4
K:Ab
V:1 treble nm="Grand Piano"
V:4 treble 
V:5 treble 
V:2 treble 
V:3 treble 
V:1
 z2 z2[Q:1/4=92] cd | [DB]3 =A [DB]c | [CA]2 [CE]2 [CA]B | [DG]3 F Ed |[M:2/4] [Ec]4 |[M:1/4] cd | %6
[M:3/4] [DB]3 =A Bc | [CB]2 [CA]2 [FA]A | [=DA]3 c [B,DB]F |[M:2/4] B4 |[M:1/4] EE |[M:3/4] G4 z2 | %12
 F2 z2 z2 | B4 z2 |[M:2/4] [Ec]2 z2 |[M:1/4] [A,EA]B |[M:3/4] c3 e dc | [FB]2 [DF]2 [EG]F | %18
 Ec c2 B2 |[M:2/4] [CA]4 |] %20
V:2
 z2 z2 EF | E,,E, z C z E | A,,E, A,2 z C | B,,E, z D DF |[M:2/4] A,,E, A,2 |[M:1/4][K:treble] EF | %6
[M:3/4][K:bass] E,,E, z C DD | z2 z2 F,2 | B,,F, z =D z [A,D] |[M:2/4] [E,G,D]4 |[M:1/4] z2 | %11
[M:3/4] [E,B,D][E,B,] [E,B,]2 [E,G,D]2 | A,,A,, A,,2[K:treble] EF | D-[E,D-] DC D=D | %14
[M:2/4] [A,,A,]A,, A,,2 |[M:1/4] C,[E,G,E] |[M:3/4][K:treble] [A,E]3 [A,C_G] [A,DF][A,EG] | %17
 [D,D]2 [D,A,]2 [D,A,][D,A,D] | [E,A,C][E,A,E] [E,G,E]2 [E,G,D]2 |[M:2/4] [A,,A,]4 |] %20
V:3
 x6 | z2 G,2 E,2 | z2 z2 E,2 | z2 B,2 [E,G,]2 |[M:2/4] x4 |[M:1/4][K:treble] x2 | %6
[M:3/4][K:bass] z2 G,2 [=E,G,]2 | F,,C, F,2 z E | z2 B,2 B,,2 |[M:2/4] x4 |[M:1/4] x2 |[M:3/4] x6 | %12
 x4[K:treble] x2 | .[E,G,]2 E,2 [E,G,]2 |[M:2/4] x4 |[M:1/4] x2 |[M:3/4][K:treble] x6 | x6 | x6 | %19
[M:2/4] x4 |] %20
V:4
 x6 | x6 | x6 | x6 |[M:2/4] x4 |[M:1/4] x2 |[M:3/4] x6 | x6 | x6 |[M:2/4] x4 |[M:1/4] x2 | %11
[M:3/4] z D z G FG | [A,C][A,C] [A,CE]2 cd | z G, z =A B_c |[M:2/4] z A, A,2 |[M:1/4] x2 | %16
[M:3/4] x6 | x6 | x6 |[M:2/4] x4 |] %20
V:5
 x6 | x6 | x6 | x6 |[M:2/4] x4 |[M:1/4] x2 |[M:3/4] x6 | x6 | x6 |[M:2/4] x4 |[M:1/4] x2 | %11
[M:3/4] z2 D2 z2 | x6 | z2 G,2 z2 |[M:2/4] x4 |[M:1/4] x2 |[M:3/4] x6 | x6 | x6 |[M:2/4] x4 |] %20

